X:184
T:Cheshire Waltz
C:Traditional English
%%MIDI beat 100 95 80
S:Colin Hume's website,  colinhume.com  - chords can also be printed below the stave.
Q:1/4=120
M:3/4
R:Waltz
L:1/4
K:D
P:A
|: A | "D"ff/g/f/e/ | "Bm"dd/e/d/c/ | "G"Bcd | "A"A2f | "Em"gfe | "A7"bac | "D"ed"G"d | "D"d2 :|
P:B
g | "D"fa/f/e/d/ | "A7"ceg | "D"f/a/f/d/A/F/ | DFA | "G"GB"D/F#"f | "Em"ged | "A"ce/d/"E7"c/B/ | "A7"A2 ||
P:C
|: A/G/ | "D"FAd | "Bm"dcB | "A"cea | "A7"g2f | "Em"gfg | "E7/G#"Bed |1 "A"cd"E7"B | "A"A2 :|2 "A7"d/c/B/A/B/c/ | "D"d2 |]

